X: 20975
T: Juggle
R: jig
M: 6/8
K: Gmajor
|:GBed3|Aced3|GBd g2a|b3 z3|
f3f3|g3g3|f2^dB2d|f3 z3|
GBed3|Aced3|GBd g2a|b3b3|
^A^ceg3|Bdgb3|a3a3|g3 z3:|
|:Bge dBG|Bged3|Bge dBG|AcdD3|
Bge dBG|Bged3|ded cBA|G3g3|
Bge dBG|Bged3|Bge dBG|AcdD3|
Bge dBG|Bged3|ded cBA|G3g3:|

